X: 6
T: Ozdobo twarzy, wąsy pokrętne
C: Bolesław Jan Ćwiklicz
%%abc-version 2.0
%%abcx-abcm2ps-target-version 5.9.1 (29 Sep 2008)
%%abc-creator hum2abc beta
%%abcx-conversion-date 2021/10/04 07:38:39
%%abc-edited-by Marcin Jachim
%%abc-edited-by Leszek Kubiak
%%abcx-initial-encoding-date 2021-08-11
%%humdrum-veritas 853750987
%%humdrum-veritas-data 2331413082
%%linebreak <none>
%%barnumbers 0
L: 1/8
M: 3/4
N: Derived from pl-kozmzk--mzk-m-137--004_cwiklicz-boleslaw-jan-ozdobo-twarzy-wasy-pokretne.krn
%%staves {1 2}
V: 1 clef=treble
V: 2 clef=bass
K: Ab
[V:1] c & A [I:setbarnb 1]| 
[V:2] E, & A,, | 
[V:1] e>dc3B & A>A AG FG | 
[V:2] E,>F,E,3E, & C,>D,E,3D, | 
[V:1] A2GF EA- & A2EF EE | 
[V:2] E,F,/E,/ D,C, B,,C,/D,/ & C,D,/C,/ B,,A,, G,,A,,/B,,/ | 
[V:1] AB cd f3/e/ & AGAA A3/G/ | 
[V:2] E,F,F,F, E,D, & C,D,C,B,, C,B,, | 
[V:1] e/d/c/B/c2Ac & GE/E/A2AA | 
[V:2] E,E,/E,/E,2E,E, & C,/B,,/A,,/G,,/ A,,B,, C,A,, | 
[V:1] e>dc3B & A>A AG FG | 
[V:2] E,>F,E,3E, & C,>D,E,3D, | 
[V:1] A2GF EA- & A2EF EE | 
[V:2] E,F,/E,/ D,C, B,,C,/D,/ & C,D,/C,/ B,,A,, G,,A,,/B,,/ | 
[V:1] AB cd fe/d/ & AG AA A3/A/ | 
[V:2] E,F, F,F, E,/D,/E,/F,/ & C,D, C,B,, C,/B,,/C,/D,/ | 
[V:1] c/B/A/G/B2A z & GE/E/E2E z ||  
[V:2] E,E,/D,/D,2C, z & E,/D,/C,/B,,/ A,,G,, A,, z ||  
[V:1]  [K:Db] F>GA2d3/c/ & F>EF2FF | 
[V:2]  [K:Db] D,D,D,2D,D, & D,D, D,C, B,,A,, | 
[V:1] cB/=A/B3G & GG GG2G | 
[V:2] D,D, D,D,2D, & G,,G,, G,,G,,A,,B,, | 
[V:1] AB/c/f3e & GG/G/G3A | 
[V:2] E,E,/E,/ B,,C,D,E, & C,B,,/A,,/A,,2B,,C, | 
[V:1] e/d/c/B/A3A & AA AA G/F/G | 
[V:2] F,G, F,E, D,E, & D,D, D,C, B,,C, | 
[V:1] F>GA2d3/c/ & F>EF2FF | 
[V:2] D,D,D,2D,D, & D,D, D,C, B,,A,, | 
[V:1] cB/=A/B2Gg & GG/G/G2Gd | 
[V:2] D,D,/D,/ D,C,/D,/ D,G, & G,,G,,/G,,/G,,2A,,B,, | 
[V:1] fe/d/b2ag & dc/d/d3d | 
[V:2] A,A, G,E, F,G, & D,E,/F,/ G,G,, A,,B,, | 
[V:1]  [K:Db] f/e/d/c/e2d & d/c/B/A/A2A |]  
[V:2]  [K:Db] A,E,/F,/ G,F,/E,/ F, & A,,A,,/A,,/D,2D, |]  


